X: 2625
T: Banana Feet
R: reel
M: 4/4
K: Dmixolydian
DA,~A,2 FGAF|~G3A GECE|DA,~A,2 FGAd|cAGc ADDE:|2 cAGc ADDd||
|:cAGA ~F3d|cAGc ADDd|cdBG AGAB|~c3A Gc~c2|
Ecec ~d3e|dBGB A^cde|fgfe df~f2|d=cAF Gede:|
K:Dmaj
|:fd~d2 Adfd|~e3f gece|~d3e dcAd|=cAGE EDDe|
~f3g afdf|e^c~c2 Acec|dGBd gbag|1 (3fed ec dcde:|2 (3fed ec dAAB||
K:Dmix
|:~c3E FGAB|cAFc BGBd|cE~E2 FGAB|1 ~c3A GB~B2:|2 ~c3A GECE||

